static/assets/images/exchanges/tinyman.svg

<svg width="123" height="256" viewBox="0 0 123 256" fill="none" xmlns="http://www.w3.org/2000/svg">
<path fill-rule="evenodd" clip-rule="evenodd" d="M59.1766 1.94248C71.3257 -3.4379 85.4835 2.78485 89.6877 15.3526L101.141 49.5909C108.574 56.0234 112.863 65.3633 112.863 75.2059V160.037C112.863 167.661 106.66 173.842 99.0082 173.842C98.7815 173.842 98.5565 173.837 98.3326 173.826V210.365C98.3326 215.913 102.325 220.663 107.807 221.636L112.865 222.534C118.729 223.574 123 228.654 123 234.59C123 236.037 122.743 237.446 122.263 238.758C122.304 239.004 122.324 239.252 122.324 239.501C122.324 248.613 94.9413 256 61.1621 256C27.3832 256 0 248.613 0 239.501C0 231.798 19.5663 225.329 46.0222 223.511L46.6089 144.95C39.7128 138.254 35.5464 128.797 35.8947 118.418L37.7349 63.6102C37.8395 60.4928 39.0262 57.5082 41.0925 55.1652L47.0723 48.3852C47.3694 48.0478 47.5194 47.6059 47.4874 47.1579L45.8583 24.0202C45.1949 14.6018 50.5183 5.77717 59.1766 1.94248ZM67.5826 170.832V230.979C66.5709 231.165 65.4395 231.25 64.2081 231.236C61.822 231.21 59.34 230.819 57.151 230.325C55.4846 229.949 54.0968 228.304 54.1143 225.966L54.5521 167.291C57.3539 168.602 63.7267 170.633 67.5826 170.832ZM85.1539 172.832C85.1539 176.162 87.2626 179.001 90.2226 180.095V210.365C90.2226 219.83 97.0338 227.932 106.385 229.592L111.443 230.49C113.438 230.843 114.89 232.571 114.89 234.59C114.89 236.573 113.537 238.12 111.783 238.411C103.312 239.817 88.6202 241.632 77.2752 239.92C76.5252 239.807 75.692 239.061 75.692 237.742V151.196C75.692 148.826 73.7641 146.905 71.3861 146.905C55.8934 146.905 43.4821 134.117 44.0001 118.688L45.8403 63.8804C45.8821 62.6325 46.3571 61.4376 47.1845 60.4997L53.1637 53.7197C54.8916 51.7605 55.7608 49.1939 55.5777 46.5922L53.948 23.4542C53.5236 17.4278 56.93 11.7809 62.4703 9.3274C70.2443 5.88435 79.3037 9.86619 81.9939 17.9081L93.7482 53.0455C94.0308 53.8903 94.5477 54.6379 95.2395 55.2017C101.261 60.1108 104.753 67.4537 104.753 75.2059V160.037C104.753 163.198 102.181 165.761 99.0082 165.761C95.8355 165.761 93.2639 163.198 93.2639 160.037V81.5826H85.1539V172.832Z" fill="#797979"/>
<path fill-rule="evenodd" clip-rule="evenodd" d="M67.5273 170.835V230.983C66.5157 231.168 65.3842 231.253 64.1522 231.239C61.7667 231.214 59.2847 230.823 57.0957 230.328C55.4294 229.952 54.0416 228.307 54.059 225.97L54.4968 167.294C57.2986 168.605 63.6714 170.636 67.5273 170.835ZM85.0986 172.835C85.0986 176.165 87.2074 179.004 90.1673 180.098V210.369C90.1673 219.833 96.9785 227.935 106.33 229.595L111.388 230.493C113.382 230.847 114.835 232.574 114.835 234.593C114.835 236.577 113.482 238.123 111.728 238.415C103.257 239.82 88.565 241.635 77.22 239.923C76.4699 239.81 75.6368 239.064 75.6368 237.746V151.199C75.6368 148.83 73.7088 146.908 71.3309 146.908C55.8381 146.908 43.4268 134.12 43.9448 118.691L45.785 63.8838C45.8269 62.6358 46.3019 61.441 47.1292 60.503L53.1084 53.723C54.8363 51.7639 55.7055 49.1973 55.5224 46.5955L53.8927 23.4577C53.4683 17.4308 56.8748 11.7845 62.415 9.3304C70.189 5.88793 79.2485 9.86978 81.9387 17.9117L93.693 53.0489C93.9755 53.8936 94.4924 54.6413 95.1843 55.2051C101.205 60.1141 104.697 67.457 104.697 75.2093V160.04C104.697 163.202 102.126 165.764 98.953 165.764C95.7802 165.764 93.2087 163.202 93.2087 160.04V81.5859H85.0986V172.835Z" fill="#F2FE67"/>
</svg>

<svg xmlns="http://www.w3.org/2000/svg" fill="none" viewBox="0 0 123 256"><path fill="#797979" fill-rule="evenodd" d="M59.177 1.942c12.149-5.38 26.307.843 30.51 13.41l11.454 34.239a33.88 33.88 0 0 1 11.722 25.615v84.831c0 7.624-6.203 13.805-13.855 13.805q-.34 0-.675-.016v36.539c0 5.548 3.992 10.298 9.474 11.271l5.058.898c5.864 1.04 10.135 6.12 10.135 12.056 0 1.447-.257 2.856-.737 4.168q.061.37.061.743c0 9.112-27.383 16.499-61.162 16.499S0 248.613 0 239.501c0-7.703 19.566-14.172 46.022-15.99l.587-78.561c-6.896-6.696-11.063-16.153-10.714-26.532l1.84-54.808a13.45 13.45 0 0 1 3.358-8.445l5.98-6.78a1.68 1.68 0 0 0 .414-1.227L45.858 24.02c-.663-9.418 4.66-18.243 13.319-22.078m8.406 168.89v60.147c-1.012.186-2.144.271-3.375.257-2.386-.026-4.868-.417-7.057-.911-1.666-.376-3.054-2.021-3.037-4.359l.438-58.675c2.802 1.311 9.175 3.342 13.03 3.541m17.57 2c0 3.33 2.11 6.169 5.07 7.263v30.27c0 9.465 6.81 17.567 16.162 19.227l5.058.898a4.17 4.17 0 0 1 3.447 4.1c0 1.983-1.353 3.53-3.107 3.821-8.471 1.406-23.163 3.221-34.508 1.509-.75-.113-1.583-.859-1.583-2.178v-86.546a4.3 4.3 0 0 0-4.306-4.291c-15.493 0-27.904-12.788-27.386-28.217l1.84-54.808a5.38 5.38 0 0 1 1.344-3.38l5.98-6.78a9.74 9.74 0 0 0 2.414-7.128l-1.63-23.138A14.35 14.35 0 0 1 62.47 9.327c7.774-3.443 16.834.54 19.524 8.581l11.754 35.138c.283.844.8 1.592 1.492 2.156a25.81 25.81 0 0 1 9.513 20.004v84.831c0 3.161-2.572 5.724-5.745 5.724s-5.744-2.563-5.744-5.724V81.583h-8.11z" clip-rule="evenodd"/><path fill="#F2FE67" fill-rule="evenodd" d="M67.527 170.835v60.148c-1.011.185-2.143.27-3.375.256-2.385-.025-4.867-.416-7.056-.911-1.667-.376-3.054-2.021-3.037-4.358l.438-58.676c2.802 1.311 9.174 3.342 13.03 3.541m17.572 2c0 3.33 2.108 6.169 5.068 7.263v30.271c0 9.464 6.811 17.566 16.163 19.226l5.058.898a4.17 4.17 0 0 1 3.447 4.1c0 1.984-1.353 3.53-3.107 3.822-8.471 1.405-23.163 3.22-34.508 1.508-.75-.113-1.583-.859-1.583-2.177v-86.547a4.3 4.3 0 0 0-4.306-4.291c-15.493 0-27.904-12.788-27.386-28.217l1.84-54.807a5.4 5.4 0 0 1 1.344-3.381l5.98-6.78a9.74 9.74 0 0 0 2.413-7.127l-1.63-23.138c-.424-6.027 2.983-11.673 8.523-14.128 7.774-3.442 16.834.54 19.524 8.582l11.754 35.137c.282.845.8 1.592 1.491 2.156a25.81 25.81 0 0 1 9.513 20.004v84.831c0 3.162-2.571 5.724-5.744 5.724s-5.744-2.562-5.744-5.724V81.586h-8.11z" clip-rule="evenodd"/></svg>
